X:11
T: Wheel Hoss
C: Bill Monroe
S: Sam Bush
S: Just Some Mandolin Pickers (Bush, Grisman, Marshall, McCoury, and Thile, Rockygrass, 2001)
S: MandoZine TablEdit Archives
Z: TablEdited by Steve Keating for MandoZine
L: 1/8
Q: 540
M: 4/4
K: G
 "First Break"[g8B8D8] | "G"DB, DG "F"[=F2A,2] =FG | "G"DB, DG "F"=FE =FG | "G"DB, DG "F"=FE =F2 |
 "D"dc Bc "G"BG G2 | [g2B2] [g2B2] "F"[=F2A,2] [=F2A,2] | "G"G,B, [G2B,2] "F"[=F2A,2] [=F2A,2] |
 "G"G,B, DG "F"=FA Bc | "D"dB cA "G"BG G2 | G,B, DG "F"[=F2A,2] [=F2A,2] | "G"DB, DG "F"=FE =FG |
 "G"DB, DG "F"=FA Bc | "D"dB cA "G"BG G2 | G,B, DG "F"[=F2A,2] =FG | "G"DB, DG "F"=FE =FG |
 "G"DB, DG "F"=F=F =Fe | "D"=fe dc "G"BG Ge | eg ga g2 ga | ge dc BG Ge | eg ga gg gg |
 bg ag eg g2 | ^ab bb g2 g=a | ge dc BG GG | DG GA Bd de | "D"=fe dc "G"^A/B/G GG |
 GG G2 | G,2 [g2B2D2] [BD][BD] [B2D2] | eg ga g2 ga | ge dc BG Ge | eg ga g2 ga |
 bg ag eg gg | ^ab bb g2 g=a | ge dc BG GG | DG GA Bd de | "D"=fe dc "G"^A/B/G GG |
 G[DG,] [EG,][DG,] | [G2G,2] [DG,][DG,] [D4G,4] |
